X:168
T: Fan Dui hua
N: C0279
O: China,Heilongjiang, Qiqihar
S: III, 67]
N: Es wird von Dezember bis Januar gezaehlt. +++Aufnahme suchen.
N: Diese Sammlung enthaelt mit Stand 1987 wenigstens 32 Aufnahmen
N: mit dem Titel "Dui hua"
N: C0046, C0495, C0136
R: Xiaodiao. Siji huahui]
M: 2/4
L: 1/16
K: D
d2B2A4 | F2B2A4 | F2A2B2A2 | B2d2A4 |
A2B2d4 | deB2A4 | A2F2A2A2 | B2BdA4 |
d2FBA4 | F2B2A4 | F2A2FFAA | B2d2A4 |
F2A2FFAF | d3BA4 |
F2A2FAFA | B2d2A4 |
F2A2FAFA | B2d2A4 |
F2B2A4
F2B2A4
F2B2A4
F2B2A4
D2B,2D4 | z2D4B,2 | D6B,D | A,8

@@@ Tune index: 6169
